icons/src/scalable/actions/find-location-symbolic.svg

<?xml version="1.0" encoding="UTF-8" standalone="no"?>
<svg
   height="16"
   width="16"
   version="1.1"
   id="svg4"
   sodipodi:docname="find-location-symbolic.svg"
   inkscape:version="1.1 (ce6663b3b7, 2021-05-25)"
   xmlns:inkscape="http://www.inkscape.org/namespaces/inkscape"
   xmlns:sodipodi="http://sodipodi.sourceforge.net/DTD/sodipodi-0.dtd"
   xmlns="http://www.w3.org/2000/svg"
   xmlns:svg="http://www.w3.org/2000/svg">
  <defs
     id="defs8" />
  <sodipodi:namedview
     id="namedview6"
     pagecolor="#ffffff"
     bordercolor="#666666"
     borderopacity="1.0"
     inkscape:pageshadow="2"
     inkscape:pageopacity="0.0"
     inkscape:pagecheckerboard="0"
     showgrid="true"
     inkscape:zoom="28"
     inkscape:cx="3.0892857"
     inkscape:cy="11.196429"
     inkscape:window-width="1920"
     inkscape:window-height="1016"
     inkscape:window-x="0"
     inkscape:window-y="27"
     inkscape:window-maximized="1"
     inkscape:current-layer="svg4">
    <inkscape:grid
       type="xygrid"
       id="grid10" />
  </sodipodi:namedview>
  <path
     d="m 8,1 h -1 v 1.025 c -3.1927129,0.246969 -5.7298944,2.7824531 -5.979,5.975 h -1.021 v 1 h 1.025 c 0.246969,3.192713 2.7824531,5.729894 5.975,5.979 v 1.021 h 1 v -1.025 c 3.192713,-0.246969 5.729894,-2.782453 5.979,-5.975 h 1.021 v -1 h -1.025 c -0.246969,-3.1927129 -2.782453,-5.7298944 -5.975,-5.979 z m -0.5,2 c 3.037566,0 5.5,2.4624339 5.5,5.5 0,3.037566 -2.462434,5.5 -5.5,5.5 -3.0375661,0 -5.5,-2.462434 -5.5,-5.5 0,-3.0375661 2.4624339,-5.5 5.5,-5.5 z m 0,3 c -1.3807119,0 -2.5,1.1192881 -2.5,2.5 0,1.3807119 1.1192881,2.5 2.5,2.5 1.3807119,0 2.5,-1.1192881 2.5,-2.5 0,-1.3807119 -1.1192881,-2.5 -2.5,-2.5 z"
     fill="#808080"
     id="path2"
     sodipodi:nodetypes="cccccccccccccccccssssssssss" />
</svg>

<svg height="16" width="16" xmlns="http://www.w3.org/2000/svg">
    <path d="M8 .75L7 1v1.025A6.5 6.5 0 0 0 1.021 8H0v1h1.025A6.5 6.5 0 0 0 7 14.979V16h1v-1.025A6.5 6.5 0 0 0 13.979 9H15V8h-1.025A6.5 6.5 0 0 0 8 2.021zM7.5 3A5.5 5.5 0 0 1 13 8.5 5.5 5.5 0 0 1 7.5 14 5.5 5.5 0 0 1 2 8.5 5.5 5.5 0 0 1 7.5 3zm0 3A2.5 2.5 0 0 0 5 8.5 2.5 2.5 0 0 0 7.5 11 2.5 2.5 0 0 0 10 8.5 2.5 2.5 0 0 0 7.5 6z" fill="gray"/>
</svg>
